client/public/img/game/shared/emotes/creepy_clown.svg

<?xml version="1.0" encoding="UTF-8" standalone="no"?>
<!-- Created with Inkscape (http://www.inkscape.org/) -->

<svg
   width="84"
   height="84"
   viewBox="0 0 22.225 22.225001"
   version="1.1"
   id="svg1"
   xml:space="preserve"
   xmlns="http://www.w3.org/2000/svg"
   xmlns:svg="http://www.w3.org/2000/svg"><defs
     id="defs1" /><style
     type="text/css"
     id="style16758">
	.st0{fill:#FFC300;stroke:#695000;stroke-width:13;stroke-miterlimit:10;}
	.st1{fill:#FFC300;stroke:#695000;stroke-width:13;stroke-linecap:round;stroke-miterlimit:10;}
</style><style
     type="text/css"
     id="style16758-4">
	.st0{fill:#FFC300;stroke:#695000;stroke-width:13;stroke-miterlimit:10;}
	.st1{fill:#FFC300;stroke:#695000;stroke-width:13;stroke-linecap:round;stroke-miterlimit:10;}
</style><style
     type="text/css"
     id="style16758-5">
	.st0{fill:#FFC300;stroke:#695000;stroke-width:13;stroke-miterlimit:10;}
	.st1{fill:#FFC300;stroke:#695000;stroke-width:13;stroke-linecap:round;stroke-miterlimit:10;}
</style><style
     type="text/css"
     id="style16758-9">
	.st0{fill:#FFC300;stroke:#695000;stroke-width:13;stroke-miterlimit:10;}
	.st1{fill:#FFC300;stroke:#695000;stroke-width:13;stroke-linecap:round;stroke-miterlimit:10;}
</style><g
     id="g6853"><g
       id="g6823"><g
         id="g5607"
         transform="matrix(1.0623874,0,0,1.0623874,-0.81357622,-0.54281181)"><path
           id="circle3201"
           style="fill:#ff1313;fill-opacity:1;stroke:#940000;stroke-width:0.529167;stroke-linecap:round;stroke-linejoin:round;stroke-dasharray:none;stroke-opacity:1;paint-order:normal"
           d="m 15.532989,1.6192005 a 2.6495557,2.6495557 0 0 0 -2.649518,2.6495187 2.6495557,2.6495557 0 0 0 2.649518,2.6495188 2.6495557,2.6495557 0 0 0 0.03162,-9.729e-4 2.6495557,2.6495557 0 0 0 0.683903,0.863392 A 2.6495557,2.6495557 0 0 0 16.122044,8.5866517 2.6495557,2.6495557 0 0 0 18.771562,11.23617 2.6495557,2.6495557 0 0 0 21.421081,8.5866517 2.6495557,2.6495557 0 0 0 20.460892,6.5456418 2.6495557,2.6495557 0 0 0 20.586874,5.74062 2.6495557,2.6495557 0 0 0 17.937355,3.0911013 2.6495557,2.6495557 0 0 0 17.907195,3.0920741 2.6495557,2.6495557 0 0 0 15.532989,1.6192005 Z" /></g><g
         id="g5554"
         transform="matrix(1.0623874,0,0,1.0623874,-0.81357617,-0.54281181)"><path
           id="circle3197"
           style="fill:#ff1313;fill-opacity:1;stroke:#940000;stroke-width:0.529167;stroke-linecap:round;stroke-linejoin:round;stroke-dasharray:none;stroke-opacity:1;paint-order:normal"
           d="M 6.918473,1.6192005 A 2.6495557,2.6495557 0 0 0 4.5457261,3.0915877 2.6495557,2.6495557 0 0 0 4.514109,3.0911013 2.6495557,2.6495557 0 0 0 1.8645902,5.74062 2.6495557,2.6495557 0 0 0 1.9910589,6.5466146 2.6495557,2.6495557 0 0 0 1.0303834,8.5866517 2.6495557,2.6495557 0 0 0 3.6799021,11.23617 2.6495557,2.6495557 0 0 0 6.3294209,8.5866517 2.6495557,2.6495557 0 0 0 6.2034386,7.7801706 2.6495557,2.6495557 0 0 0 6.8868559,6.9172651 2.6495557,2.6495557 0 0 0 6.918473,6.918238 2.6495557,2.6495557 0 0 0 9.5679918,4.2687192 2.6495557,2.6495557 0 0 0 6.918473,1.6192005 Z" /></g></g><g
       id="g5635"
       transform="matrix(1.0623874,0,0,1.0623874,-0.82618315,-0.54281181)"><g
         id="layer1"
         transform="matrix(0.65625011,0,0,0.65625011,565.05838,-343.7108)"><g
           id="g939"
           transform="matrix(0.26883313,0,0,0.26883313,-862.78867,472.79958)"><circle
             style="opacity:1;fill:#ffffff;fill-opacity:1;fill-rule:nonzero;stroke:#595959;stroke-width:5.00007;stroke-linecap:round;stroke-linejoin:round;stroke-miterlimit:4;stroke-dasharray:none;stroke-dashoffset:0;stroke-opacity:1;paint-order:normal"
             id="path10-4"
             cx="70.197563"
             cy="254.22728"
             r="49.488537" /><g
             id="g877"
             transform="translate(0.70906067)"><circle
               style="opacity:1;fill:#1b1b1b;fill-opacity:1;fill-rule:nonzero;stroke:none;stroke-width:6.4123;stroke-linecap:round;stroke-linejoin:bevel;stroke-miterlimit:4;stroke-dasharray:none;stroke-dashoffset:0;stroke-opacity:1;paint-order:markers stroke fill"
               id="path5010-3"
               cx="45.864922"
               cy="242.61382"
               r="7.5" /><circle
               cy="92.977547"
               cx="-242.61382"
               id="circle5014-14"
               style="opacity:1;fill:#1b1b1b;fill-opacity:1;fill-rule:nonzero;stroke:none;stroke-width:6.4123;stroke-linecap:round;stroke-linejoin:bevel;stroke-miterlimit:4;stroke-dasharray:none;stroke-dashoffset:0;stroke-opacity:1;paint-order:markers stroke fill"
               transform="rotate(-90)"
               r="7.5" /></g><ellipse
             style="fill:#ea0000;fill-opacity:1;stroke:#940000;stroke-width:2.81273;stroke-linecap:round;stroke-linejoin:round;stroke-dasharray:none;stroke-dashoffset:631.937;stroke-opacity:1;paint-order:normal"
             id="path9991"
             cx="70.130302"
             cy="257.20752"
             rx="10.337229"
             ry="10.33723" /><g
             id="g890"
             transform="translate(0.67274659)"><path
               style="opacity:1;fill:#dfdfdf;fill-opacity:1;fill-rule:nonzero;stroke:#595959;stroke-width:4;stroke-linecap:round;stroke-linejoin:round;stroke-miterlimit:4;stroke-dasharray:none;stroke-dashoffset:0;stroke-opacity:1;paint-order:normal"
               d="m 100.10069,267.05131 c 6.13003,36.43287 -66.587459,36.94884 -61.383336,0 35.180363,25.34921 38.228478,12.03548 61.383336,0 z"
               id="path13740" /><path
               style="fill:none;fill-opacity:1;stroke:#595959;stroke-width:2;stroke-linecap:round;stroke-linejoin:round;stroke-dasharray:none;stroke-dashoffset:631.937;stroke-opacity:1;paint-order:normal"
               d="m 37.891401,272.68594 c 27.632699,22.49459 39.940756,18.72111 62.868779,-0.19666"
               id="path14010" /><path
               style="fill:none;fill-opacity:1;stroke:#595959;stroke-width:2.08018;stroke-linecap:round;stroke-linejoin:round;stroke-dasharray:none;stroke-dashoffset:631.937;stroke-opacity:1;paint-order:normal"
               d="m 44.407398,285.57938 v -14.1621"
               id="path14092" /><path
               style="fill:none;fill-opacity:1;stroke:#595959;stroke-width:2.07118;stroke-linecap:round;stroke-linejoin:round;stroke-dasharray:none;stroke-dashoffset:631.937;stroke-opacity:1;paint-order:normal"
               d="m 51.021981,275.3767 v 12.76883"
               id="path14094" /><path
               style="fill:none;fill-opacity:1;stroke:#595959;stroke-width:2.07852;stroke-linecap:round;stroke-linejoin:round;stroke-dasharray:none;stroke-dashoffset:631.937;stroke-opacity:1;paint-order:normal"
               d="m 57.636564,279.35306 v 11.43069"
               id="path14096" /><path
               style="fill:none;fill-opacity:1;stroke:#595959;stroke-width:2;stroke-linecap:round;stroke-linejoin:round;stroke-dasharray:none;stroke-dashoffset:631.937;stroke-opacity:1;paint-order:normal"
               d="m 63.72198,282.39714 v 10.58333"
               id="path14098" /><path
               style="fill:none;fill-opacity:1;stroke:#595959;stroke-width:2.15436;stroke-linecap:round;stroke-linejoin:round;stroke-dasharray:none;stroke-dashoffset:631.937;stroke-opacity:1;paint-order:normal"
               d="M 75.363647,281.86797 V 294.148"
               id="path14100" /><path
               style="fill:none;fill-opacity:1;stroke:#595959;stroke-width:2.11061;stroke-linecap:round;stroke-linejoin:round;stroke-dasharray:none;stroke-dashoffset:631.937;stroke-opacity:1;paint-order:normal"
               d="m 81.449064,279.33581 v 12.37561"
               id="path14102" /><path
               style="fill:none;fill-opacity:1;stroke:#595959;stroke-width:2;stroke-linecap:round;stroke-linejoin:round;stroke-dasharray:none;stroke-dashoffset:631.937;stroke-opacity:1;paint-order:normal"
               d="m 88.063647,275.78256 v 12.43542"
               id="path14104" /><path
               style="fill:none;fill-opacity:1;stroke:#595959;stroke-width:2.12888;stroke-linecap:round;stroke-linejoin:round;stroke-dasharray:none;stroke-dashoffset:631.937;stroke-opacity:1;paint-order:normal"
               d="m 94.67823,270.3355 v 15.59025"
               id="path14106" /><path
               style="fill:none;fill-opacity:1;stroke:#595959;stroke-width:2;stroke-linecap:round;stroke-linejoin:round;stroke-dasharray:none;stroke-dashoffset:631.937;stroke-opacity:1;paint-order:normal"
               d="m 69.413832,282.92631 v 10.58333"
               id="path14108" /></g></g></g><g
         id="g5611"><circle
           style="fill:#ff6868;fill-opacity:1;stroke:#ff4e4e;stroke-width:0.640292;stroke-linecap:round;stroke-linejoin:round;stroke-dasharray:none;stroke-opacity:1;paint-order:normal"
           id="path3259"
           cx="4.7753668"
           cy="12.070084"
           r="0.94991475" /><circle
           style="fill:#ff6868;fill-opacity:1;stroke:#ff4e4e;stroke-width:0.640292;stroke-linecap:round;stroke-linejoin:round;stroke-dasharray:none;stroke-opacity:1;paint-order:normal"
           id="circle3261"
           cx="17.676094"
           cy="12.070198"
           r="0.94991475" /></g></g></g><style
     type="text/css"
     id="style16758-0">
	.st0{fill:#FFC300;stroke:#695000;stroke-width:13;stroke-miterlimit:10;}
	.st1{fill:#FFC300;stroke:#695000;stroke-width:13;stroke-linecap:round;stroke-miterlimit:10;}
</style><style
     type="text/css"
     id="style16758-4-1">
	.st0{fill:#FFC300;stroke:#695000;stroke-width:13;stroke-miterlimit:10;}
	.st1{fill:#FFC300;stroke:#695000;stroke-width:13;stroke-linecap:round;stroke-miterlimit:10;}
</style><style
     type="text/css"
     id="style16758-5-4">
	.st0{fill:#FFC300;stroke:#695000;stroke-width:13;stroke-miterlimit:10;}
	.st1{fill:#FFC300;stroke:#695000;stroke-width:13;stroke-linecap:round;stroke-miterlimit:10;}
</style><style
     type="text/css"
     id="style16758-9-0">
	.st0{fill:#FFC300;stroke:#695000;stroke-width:13;stroke-miterlimit:10;}
	.st1{fill:#FFC300;stroke:#695000;stroke-width:13;stroke-linecap:round;stroke-miterlimit:10;}
</style></svg>

<svg xmlns="http://www.w3.org/2000/svg" xml:space="preserve" width="84" height="84" viewBox="0 0 22.225 22.225"><path d="M15.533 1.62a2.65 2.65 0 0 0-2.65 2.649 2.65 2.65 0 0 0 2.65 2.65l.032-.002a2.65 2.65 0 0 0 .684.864 2.7 2.7 0 0 0-.127.806 2.65 2.65 0 0 0 2.65 2.65 2.65 2.65 0 0 0 2.65-2.65 2.65 2.65 0 0 0-.961-2.041 2.7 2.7 0 0 0 .126-.805 2.65 2.65 0 0 0-2.65-2.65l-.03.001a2.65 2.65 0 0 0-2.374-1.473M6.918 1.62a2.65 2.65 0 0 0-2.372 1.472h-.032a2.65 2.65 0 0 0-2.65 2.649 2.7 2.7 0 0 0 .127.806 2.65 2.65 0 0 0-.96 2.04 2.65 2.65 0 0 0 2.649 2.65 2.65 2.65 0 0 0 2.65-2.65 2.7 2.7 0 0 0-.127-.807 2.65 2.65 0 0 0 .684-.863l.031.001a2.65 2.65 0 0 0 2.65-2.65 2.65 2.65 0 0 0-2.65-2.649" style="fill:#ff1313;fill-opacity:1;stroke:#940000;stroke-width:.529167;stroke-linecap:round;stroke-linejoin:round;stroke-dasharray:none;stroke-opacity:1;paint-order:normal" transform="matrix(1.06239 0 0 1.06239 -.814 -.543)"/><g transform="matrix(.18743 0 0 .18743 -2.045 -36.065)"><circle cx="70.198" cy="254.227" r="49.489" style="opacity:1;fill:#fff;fill-opacity:1;fill-rule:nonzero;stroke:#595959;stroke-width:5.00007;stroke-linecap:round;stroke-linejoin:round;stroke-miterlimit:4;stroke-dasharray:none;stroke-dashoffset:0;stroke-opacity:1;paint-order:normal"/><g transform="translate(.71)"><circle cx="45.865" cy="242.614" r="7.5" style="opacity:1;fill:#1b1b1b;fill-opacity:1;fill-rule:nonzero;stroke:none;stroke-width:6.4123;stroke-linecap:round;stroke-linejoin:bevel;stroke-miterlimit:4;stroke-dasharray:none;stroke-dashoffset:0;stroke-opacity:1;paint-order:markers stroke fill"/><circle cx="-242.614" cy="92.978" r="7.5" style="opacity:1;fill:#1b1b1b;fill-opacity:1;fill-rule:nonzero;stroke:none;stroke-width:6.4123;stroke-linecap:round;stroke-linejoin:bevel;stroke-miterlimit:4;stroke-dasharray:none;stroke-dashoffset:0;stroke-opacity:1;paint-order:markers stroke fill" transform="rotate(-90)"/></g><circle cx="70.13" cy="257.208" r="10.337" style="fill:#ea0000;fill-opacity:1;stroke:#940000;stroke-width:2.81273;stroke-linecap:round;stroke-linejoin:round;stroke-dasharray:none;stroke-dashoffset:631.937;stroke-opacity:1;paint-order:normal"/><path d="M100.1 267.051c6.13 36.433-66.587 36.95-61.383 0 35.18 25.35 38.229 12.036 61.384 0" style="opacity:1;fill:#dfdfdf;fill-opacity:1;fill-rule:nonzero;stroke:#595959;stroke-width:4;stroke-linecap:round;stroke-linejoin:round;stroke-miterlimit:4;stroke-dasharray:none;stroke-dashoffset:0;stroke-opacity:1;paint-order:normal" transform="translate(.673)"/><path d="M37.891 272.686c27.633 22.495 39.941 18.721 62.87-.197" style="fill:none;fill-opacity:1;stroke:#595959;stroke-width:2;stroke-linecap:round;stroke-linejoin:round;stroke-dasharray:none;stroke-dashoffset:631.937;stroke-opacity:1;paint-order:normal" transform="translate(.673)"/><path d="M44.407 285.58v-14.163" style="fill:none;fill-opacity:1;stroke:#595959;stroke-width:2.08018;stroke-linecap:round;stroke-linejoin:round;stroke-dasharray:none;stroke-dashoffset:631.937;stroke-opacity:1;paint-order:normal" transform="translate(.673)"/><path d="M51.022 275.377v12.769" style="fill:none;fill-opacity:1;stroke:#595959;stroke-width:2.07118;stroke-linecap:round;stroke-linejoin:round;stroke-dasharray:none;stroke-dashoffset:631.937;stroke-opacity:1;paint-order:normal" transform="translate(.673)"/><path d="M57.637 279.353v11.43" style="fill:none;fill-opacity:1;stroke:#595959;stroke-width:2.07852;stroke-linecap:round;stroke-linejoin:round;stroke-dasharray:none;stroke-dashoffset:631.937;stroke-opacity:1;paint-order:normal" transform="translate(.673)"/><path d="M63.722 282.397v10.583" style="fill:none;fill-opacity:1;stroke:#595959;stroke-width:2;stroke-linecap:round;stroke-linejoin:round;stroke-dasharray:none;stroke-dashoffset:631.937;stroke-opacity:1;paint-order:normal" transform="translate(.673)"/><path d="M75.364 281.868v12.28" style="fill:none;fill-opacity:1;stroke:#595959;stroke-width:2.15436;stroke-linecap:round;stroke-linejoin:round;stroke-dasharray:none;stroke-dashoffset:631.937;stroke-opacity:1;paint-order:normal" transform="translate(.673)"/><path d="M81.45 279.336v12.375" style="fill:none;fill-opacity:1;stroke:#595959;stroke-width:2.11061;stroke-linecap:round;stroke-linejoin:round;stroke-dasharray:none;stroke-dashoffset:631.937;stroke-opacity:1;paint-order:normal" transform="translate(.673)"/><path d="M88.064 275.783v12.435" style="fill:none;fill-opacity:1;stroke:#595959;stroke-width:2;stroke-linecap:round;stroke-linejoin:round;stroke-dasharray:none;stroke-dashoffset:631.937;stroke-opacity:1;paint-order:normal" transform="translate(.673)"/><path d="M94.678 270.336v15.59" style="fill:none;fill-opacity:1;stroke:#595959;stroke-width:2.12888;stroke-linecap:round;stroke-linejoin:round;stroke-dasharray:none;stroke-dashoffset:631.937;stroke-opacity:1;paint-order:normal" transform="translate(.673)"/><path d="M69.414 282.926v10.584" style="fill:none;fill-opacity:1;stroke:#595959;stroke-width:2;stroke-linecap:round;stroke-linejoin:round;stroke-dasharray:none;stroke-dashoffset:631.937;stroke-opacity:1;paint-order:normal" transform="translate(.673)"/></g><g transform="matrix(1.06239 0 0 1.06239 -.826 -.543)"><circle cx="4.775" cy="12.07" r=".95" style="fill:#ff6868;fill-opacity:1;stroke:#ff4e4e;stroke-width:.640292;stroke-linecap:round;stroke-linejoin:round;stroke-dasharray:none;stroke-opacity:1;paint-order:normal"/><circle cx="17.676" cy="12.07" r=".95" style="fill:#ff6868;fill-opacity:1;stroke:#ff4e4e;stroke-width:.640292;stroke-linecap:round;stroke-linejoin:round;stroke-dasharray:none;stroke-opacity:1;paint-order:normal"/></g></svg>
